X: 1
T: Frankenstein
M: 4/4
L: 1/8
R: reel
K: Edor
|:E2BE GBEG|BEGB AGFE|D2AG FADF|ADFA BAGF|
E2BE GBEG|BEGA B3c|d2cd B2AF|GBFG E4:|
|:Beef e3f|g2fg edBc|dA~A2 eA~A2|f2fe dcBA|
Beef e3f|g2fg edBc|d2cd B2AF|GBFG E4:|
